X: 10991
T: The HIGHLAND WATCH
Q: "Very Slow"
%R: air, march
B: "Edinburgh Repository of Music" v.1 p.99 #1
F: http://digital.nls.uk/special-collections-of-printed-music/pageturner.cfm?id=87776133
Z: 2015 John Chambers <jc:trillian.mit.edu>
M: C
L: 1/8
K: Am
e |\
c<AA>B cAAe | c>A G>E G2 G>e |\
c<AA>B cAA>B | c>dec A3B |
c>de>d e>dc>d | e>d cE G2G c/B/ |\
A>B c>d edca | {a}g>e {e}d>c A2A :|
a/b/ |\
{ab}c'aab c'aae' | c'a ge g2 ga/b/ | c'aab c'aa>b | c'>d'e'>c' a2 a>b |
c'>d' e'>d' e'>d' c'd' | e'>d' d'/c'/b/a/ {a}g2 gc'/b/ | ~a>b ~c'>d' e'c'd'e' | c'>a b>^g {g}Ta2 a>b |
c'a a>b c'aae' | c'>a (a/g/f/e/) g2 ga/b/ | c'aa>b c'a ae/^g/ | a>e=gB A2 AB |
c>deg e>dcd | e>d cE G2 Gc/B/ | ~A>B ~c>d e>dca | g>e {e}d>{c}B A2 A |]

%%sep 2 1 500
%%sep 1 1 500

